X:568
T: "Nonnenlied"
N: Z1248
O: Europa, Mitteleuropa, Deutschland, Niederrhein
R: Liebes - Lied
M: 6/8
L: 1/8
K: A
E | EAAABc | c3B2
A | Accd2B | A4z
c | dddd2e | d2Bd2e
A3E3 | A2ce2
f | ecABcB | A3z2

